polaris-icons/icons/newicons/IdentityCardMajor.svg

<svg width="20" height="20" viewBox="0 0 20 20" fill="none" xmlns="http://www.w3.org/2000/svg">
<path fill-rule="evenodd" clip-rule="evenodd" d="M7.51789 4H12.4821C13.2949 3.99999 13.9506 3.99999 14.4815 4.04336C15.0281 4.08803 15.5082 4.18239 15.9525 4.40873C16.6581 4.76825 17.2317 5.34193 17.5913 6.04754C17.8176 6.49175 17.912 6.9719 17.9566 7.51853C18 8.04944 18 8.70505 18 9.51788V10.4821C18 11.295 18 11.9506 17.9566 12.4815C17.912 13.0281 17.8176 13.5082 17.5913 13.9525C17.2317 14.6581 16.6581 15.2317 15.9525 15.5913C15.5082 15.8176 15.0281 15.912 14.4815 15.9566C13.9506 16 13.295 16 12.4821 16H7.51787C6.70504 16 6.04944 16 5.51853 15.9566C4.97189 15.912 4.49175 15.8176 4.04753 15.5913C3.34193 15.2317 2.76825 14.6581 2.40872 13.9525C2.18238 13.5082 2.08802 13.0281 2.04336 12.4815C1.99998 11.9506 1.99999 11.2949 2 10.4821V9.5179C1.99999 8.70506 1.99998 8.04944 2.04336 7.51853C2.08802 6.9719 2.18238 6.49175 2.40872 6.04754C2.76825 5.34193 3.34193 4.76825 4.04753 4.40873C4.49175 4.18239 4.97189 4.08803 5.51853 4.04336C6.04944 3.99999 6.70506 3.99999 7.51789 4ZM5.64068 5.53838C5.1868 5.57547 4.92604 5.6446 4.72852 5.74524C4.30516 5.96095 3.96095 6.30516 3.74523 6.72852C3.64459 6.92604 3.57546 7.18681 3.53838 7.64068C3.50058 8.10331 3.5 8.69755 3.5 9.55V10.45C3.5 11.3025 3.50058 11.8967 3.53838 12.3593C3.57197 12.7704 3.63185 13.0231 3.71762 13.2138C4.26754 12.8203 4.87698 12.514 5.52459 12.3074C6.4503 12.0121 7.43044 11.9281 8.39289 12.0616C9.35535 12.1951 10.2756 12.5427 11.086 13.0787C11.6734 13.4673 12.1922 13.9476 12.6235 14.5C13.3841 14.4997 13.9287 14.4968 14.3593 14.4616C14.8132 14.4245 15.074 14.3554 15.2715 14.2548C15.6948 14.039 16.039 13.6948 16.2548 13.2715C16.3554 13.074 16.4245 12.8132 16.4616 12.3593C16.4994 11.8967 16.5 11.3025 16.5 10.45V9.55C16.5 8.69755 16.4994 8.10331 16.4616 7.64068C16.4245 7.18681 16.3554 6.92604 16.2548 6.72852C16.039 6.30516 15.6948 5.96095 15.2715 5.74524C15.074 5.6446 14.8132 5.57547 14.3593 5.53838C13.8967 5.50058 13.3025 5.5 12.45 5.5H7.55C6.69754 5.5 6.10331 5.50058 5.64068 5.53838ZM10.5 14.5C10.4213 14.441 10.3408 14.3842 10.2585 14.3298C9.6351 13.9174 8.92719 13.6501 8.18684 13.5474C7.44649 13.4447 6.69254 13.5093 5.98046 13.7365C5.56427 13.8693 5.16857 14.0556 4.80294 14.2898C4.99172 14.3716 5.24152 14.429 5.64068 14.4616C6.10331 14.4994 6.69754 14.5 7.55 14.5H10.5ZM11.5 11.25C11.5 10.8358 11.8358 10.5 12.25 10.5H14.25C14.6642 10.5 15 10.8358 15 11.25C15 11.6642 14.6642 12 14.25 12H12.25C11.8358 12 11.5 11.6642 11.5 11.25ZM12.25 8C11.8358 8 11.5 8.33579 11.5 8.75C11.5 9.16422 11.8358 9.5 12.25 9.5H14.25C14.6642 9.5 15 9.16422 15 8.75C15 8.33579 14.6642 8 14.25 8H12.25ZM7.5 9.75C8.05229 9.75 8.5 9.30229 8.5 8.75C8.5 8.19772 8.05229 7.75 7.5 7.75C6.94772 7.75 6.5 8.19772 6.5 8.75C6.5 9.30229 6.94772 9.75 7.5 9.75ZM7.5 11.25C8.88071 11.25 10 10.1307 10 8.75C10 7.36929 8.88071 6.25 7.5 6.25C6.11929 6.25 5 7.36929 5 8.75C5 10.1307 6.11929 11.25 7.5 11.25Z" fill="black"/>
</svg>

<svg viewBox="0 0 20 20" fill="none" xmlns="http://www.w3.org/2000/svg"><path fill-rule="evenodd" clip-rule="evenodd" d="M7.518 4h4.964c.813 0 1.469 0 2 .043.546.045 1.026.14 1.47.366a3.75 3.75 0 0 1 1.64 1.639c.226.444.32.924.365 1.47.043.531.043 1.187.043 2v.964c0 .813 0 1.469-.043 2-.045.546-.14 1.026-.366 1.47a3.75 3.75 0 0 1-1.639 1.64c-.444.226-.924.32-1.47.365-.531.043-1.187.043-2 .043h-4.964c-.813 0-1.469 0-2-.043-.546-.045-1.026-.14-1.47-.366a3.75 3.75 0 0 1-1.64-1.638c-.226-.445-.32-.925-.365-1.471-.043-.531-.043-1.187-.043-2v-.964c0-.813 0-1.469.043-2 .045-.546.14-1.026.366-1.47a3.75 3.75 0 0 1 1.639-1.64c.444-.226.924-.32 1.47-.365.531-.043 1.187-.043 2-.043Zm-1.877 1.538c-.454.037-.715.107-.912.207a2.25 2.25 0 0 0-.984.984c-.1.197-.17.458-.207.912-.037.462-.038 1.057-.038 1.909v.9c0 .853 0 1.447.038 1.91.034.41.094.663.18.854a6.5 6.5 0 0 1 8.905 1.286c.761 0 1.306-.003 1.736-.038.454-.037.715-.107.912-.207.424-.216.768-.56.984-.984.1-.197.17-.458.207-.912.037-.462.038-1.056.038-1.909v-.9c0-.852 0-1.447-.038-1.91-.038-.453-.107-.714-.207-.911a2.25 2.25 0 0 0-.983-.984c-.198-.1-.459-.17-.913-.207-.462-.037-1.056-.038-1.909-.038h-4.9c-.852 0-1.447 0-1.91.038Zm4.859 8.962a4.989 4.989 0 0 0-2.313-.953 4.999 4.999 0 0 0-3.384.743c.189.082.439.139.838.172.462.037 1.057.038 1.909.038h2.95Zm1-3.25a.75.75 0 0 1 .75-.75h2a.75.75 0 0 1 0 1.5h-2a.75.75 0 0 1-.75-.75Zm.75-3.25a.75.75 0 0 0 0 1.5h2a.75.75 0 0 0 0-1.5h-2Zm-4.75 1.75a1 1 0 1 0 0-2 1 1 0 0 0 0 2Zm0 1.5a2.5 2.5 0 1 0 0-5 2.5 2.5 0 0 0 0 5Z" fill="#000"/></svg>
